!!!COM: Kostka, Payne, and Almén
!!!OPR: Tonal Harmony
!!!XEN: Modulation snippets
!!!OTL: 1. C Major to G Major
!!!ENC: Laurent Feisthauer and Nestor Napoles Lopez
**kern	**kern	**kern	**kern
*clefF4	*clefC3	*clefG2	*clefG2
*k[b-e-a-]	*k[b-e-a-]	*k[b-e-a-]	*k[b-e-a-]
*C:	*C:	*C:	*C:
*M2/4	*M2/4	*M2/4	*M2/4
8r	8r	8r	16ff
.	.	.	16gg
=1	=1	=1	=1
4FF	2A-	4c	16aa-
.	.	.	16ff
.	.	.	16dd
.	.	.	16cc
4BB-	.	4d	16a-
.	.	.	16g
.	.	.	16f
.	.	.	16cc
=2	=2	=2	=2
2EE-	2G	4e-	8b-
.	.	.	4g
.	.	8B-	.
.	.	16B-	16g
.	.	16d-	16b-
=3	=3	=3	=3
4AA-	4F	8c	8a-
.	.	8B-	8g
4BB-	4D	4A-	4f
=4	=4	=4	=4
2EE-	8E-	4G	4e-
.	8G	.	.
.	8G	8B-	8r
.	8B-	8e-	16ff
.	.	.	16gg
=5	=5	=5	=5
4FF	2A-	4c	16aa-
.	.	.	16ff
.	.	.	16dd
.	.	.	16cc
4BB-	.	4d	16a-
.	.	.	16g
.	.	.	16f
.	.	.	16cc
=6	=6	=6	=6
4EE-	4G	4.e-	8b-
.	.	.	4g
4CC	4E-	.	.
.	.	16e-	16cc
.	.	16cc	16ee-
=7	=7	=7	=7
2DD	8D	8b-	8dd
.	8d	16a	16cc
.	.	16g	16b-
.	8D	4f#	4a
.	8c	.	.
=8	=8	=8	=8
4GG	8B-	4B- d	4g
.	16B-	.	.
.	16A	.	.
8r	8G	8r	8r
==:!	==:!	==:!	==:!
!!!filter: autobeam
*-	*-	*-	*-